X:989
T:Reel 989
M:4/4
K:Emin
L:1/8
BA|G>E (3EEE dEcA|G>E (3EEE B2AG|F>D (3FED A>D (3FED |AddB dAGA|G>E (3EDE B>E (3EDE |GAEA E2dB|ABcA BGGE|A>F (3DEF G2|Bc|dfdB dBdf|eedB cBcd|efdc d2ed| (3fgf dB cAcA|c>e (3ede feed|dBec d2cd|efge dedB|AFDF A2|
